;FLAVOR:UltiGCode
;TIME:3279
;MATERIAL:5356
;MATERIAL2:0
;NOZZLE_DIAMETER:0.4
;MINX:32.215
;MINY:43.991
;MINZ:0.27
;MAXX:116.201
;MAXY:122.341
;MAXZ:11.07
;Generated with Cura_SteamEngine 4.13.1
M82 ;absolute extrusion mode
G0 F3000 Y50 ;avoid prime blob
G92 E0
G92 E0
G10
;LAYER_COUNT:73
;LAYER:0
M107
G0 F4500 X34.034 Y68.568 Z0.27
;TYPE:SKIRT
G11
G1 F1800 X34.728 Y68.331 E0.0693
G1 X37.265 Y67.781 E0.31462
G1 X39.93 Y67.126 E0.57395
G1 X42.559 Y66.4 E0.83169
G1 X45.168 Y65.6 E1.08958
G1 X47.771 Y64.72 E1.34924
G1 X50.36 Y63.763 E1.61008
G1 X52.873 Y62.752 E1.86605
G1 X55.378 Y61.661 E2.12425
G1 X57.874 Y60.489 E2.38483
G1 X60.339 Y59.245 E2.64576
G1 X62.708 Y57.964 E2.90026
G1 X65.098 Y56.583 E3.16111
G1 X67.436 Y55.141 E3.42069
G1 X69.726 Y53.64 E3.67944
G1 X71.966 Y52.078 E3.93751
G1 X74.155 Y50.46 E4.19474
G1 X76.331 Y48.752 E4.45615
G1 X78.424 Y47.012 E4.71337
G1 X80.497 Y45.186 E4.97442
G1 X80.899 Y44.822 E5.02567
G1 X81.298 Y44.515 E5.07325
G1 X81.74 Y44.275 E5.12078
G1 X82.215 Y44.107 E5.16839
G1 X82.933 Y44.002 E5.23696
G1 X83.356 Y43.991 E5.27695
G1 X112.364 Y43.991 E8.01821
G1 X113.062 Y44.001 E8.08417
G1 X113.564 Y44.048 E8.13182
G1 X114.051 Y44.174 E8.17936
G1 X114.513 Y44.376 E8.22701
G1 X114.937 Y44.647 E8.27456
G1 X115.313 Y44.983 E8.32221
G1 X115.631 Y45.373 E8.36976
G1 X115.883 Y45.809 E8.41735
G1 X116.063 Y46.279 E8.46491
G1 X116.166 Y46.772 E8.51251
G1 X116.2 Y47.407 E8.5726
G1 X116.201 Y118.469 E15.28796
G1 X116.192 Y119.196 E15.35667
G1 X116.146 Y119.698 E15.40431
G1 X116.021 Y120.186 E15.45191
G1 X115.82 Y120.648 E15.49952
G1 X115.549 Y121.072 E15.54708
G1 X115.215 Y121.448 E15.5946
G1 X114.825 Y121.767 E15.64222
G1 X114.389 Y122.02 E15.68985
G1 X113.919 Y122.201 E15.73745
G1 X113.427 Y122.305 E15.78497
G1 X112.785 Y122.34 E15.84573
G1 X83.688 Y122.341 E18.59539
G1 X82.987 Y122.331 E18.66164
G1 X82.485 Y122.284 E18.70929
G1 X81.998 Y122.158 E18.75683
G1 X81.536 Y121.957 E18.80444
G1 X81.112 Y121.685 E18.85204
G1 X80.736 Y121.349 E18.8997
G1 X80.354 Y120.861 E18.95826
G1 X80.011 Y120.322 E19.01864
G1 X79.173 Y118.964 E19.16943
G1 X77.683 Y116.694 E19.42603
G1 X76.107 Y114.437 E19.68617
G1 X74.475 Y112.232 E19.94541
G1 X72.779 Y110.073 E20.20486
G1 X71.053 Y108 E20.45977
G1 X69.203 Y105.902 E20.7241
G1 X67.361 Y103.925 E20.97945
G1 X65.441 Y101.979 E21.23779
G1 X63.444 Y100.068 E21.49899
G1 X61.426 Y98.242 E21.75617
G1 X59.33 Y96.452 E22.01665
G1 X57.221 Y94.75 E22.27275
G1 X55.026 Y93.08 E22.53339
G1 X52.808 Y91.49 E22.79128
G1 X50.54 Y89.958 E23.04992
G1 X48.218 Y88.485 E23.30978
G1 X45.866 Y87.083 E23.56853
G1 X43.492 Y85.759 E23.82541
G1 X41.026 Y84.473 E24.08823
G1 X38.616 Y83.301 E24.34148
G1 X36.089 Y82.16 E24.60349
G1 X34.755 Y81.602 E24.74014
G1 X34.134 Y81.332 E24.80413
G1 X33.69 Y81.095 E24.85169
G1 X33.288 Y80.791 E24.89932
G1 X32.94 Y80.427 E24.94691
G1 X32.653 Y80.013 E24.99451
G1 X32.436 Y79.559 E25.04207
G1 X32.293 Y79.076 E25.08967
G1 X32.227 Y78.518 E25.14277
G1 X32.215 Y78.096 E25.18266
G1 X32.215 Y72.078 E25.75136
G1 X32.225 Y71.388 E25.81658
G1 X32.273 Y70.887 E25.86414
G1 X32.398 Y70.399 E25.91174
G1 X32.6 Y69.937 E25.95939
G1 X32.872 Y69.514 E26.00692
G1 X33.207 Y69.138 E26.0545
G1 X33.598 Y68.82 E26.10213
G1 X34.034 Y68.568 E26.14972
G10
;MESH:Body1.3mf
G0 F4500 X35.929 Y70.73
G0 X35.929 Y71.965
G0 X36.402 Y77.414
G0 X45.402 Y77.414
G0 X45.402 Y81.414
G0 X46.378 Y81.414
G0 X46.795 Y77.831
G11
G0 X46.865 Y77.901
;TYPE:WALL-INNER
G1 F1800 X46.865 Y81.901 E26.52772
G1 X44.915 Y81.901 E26.712
G1 X44.915 Y77.901 E27.09
G1 X35.915 Y77.901 E27.9405
G1 X35.915 Y71.951 E28.50277
G1 X55.865 Y71.951 E30.38805
G1 X55.865 Y77.901 E30.95032
G1 X46.865 Y77.901 E31.80082
G0 F4500 X47.19 Y78.226
;TYPE:WALL-OUTER
G1 F1800 X47.19 Y82.226 E32.17882
G1 X44.59 Y82.226 E32.42452
G1 X44.59 Y78.226 E32.80252
G1 X35.59 Y78.226 E33.65302
G1 X35.59 Y71.626 E34.27672
G1 X56.19 Y71.626 E36.22342
G1 X56.19 Y78.226 E36.84712
G1 X47.19 Y78.226 E37.69762
G0 F4500 X47.19 Y78.426
G0 X46.765 Y78.426
G0 X46.525 Y77.561
;TYPE:SKIN
G1 F1800 X46.525 Y81.561 E38.06428
G1 X45.255 Y81.561 E38.1807
G1 X45.255 Y77.561 E38.54736
G1 X36.255 Y77.561 E39.37234
G1 X36.255 Y72.291 E39.85541
G1 X55.525 Y72.291 E41.6218
G1 X55.525 Y77.561 E42.10487
G1 X46.525 Y77.561 E42.92986
G0 F4500 X55.378 Y77.414
G0 X55.378 Y72.438
G0 X55.123 Y72.447
G1 F1800 X55.367 Y72.691 E42.96149
G0 F4500 X55.367 Y73.186
G1 F1800 X54.628 Y72.447 E43.05729
G0 F4500 X54.133 Y72.447
G1 F1800 X55.367 Y73.681 E43.21726
G0 F4500 X55.367 Y74.176
G1 F1800 X53.638 Y72.447 E43.44139
G0 F4500 X53.143 Y72.447
G1 F1800 X55.367 Y74.671 E43.7297
G0 F4500 X55.367 Y75.166
G1 F1800 X52.648 Y72.447 E44.08217
G0 F4500 X52.153 Y72.447
G1 F1800 X55.367 Y75.661 E44.49882
G0 F4500 X55.367 Y76.156
G1 F1800 X51.658 Y72.447 E44.97963
G0 F4500 X51.163 Y72.447
G1 F1800 X55.367 Y76.651 E45.52461
G0 F4500 X55.367 Y77.146
G1 F1800 X50.668 Y72.447 E46.13376
G0 F4500 X50.173 Y72.447
G1 F1800 X55.128 Y77.402 E46.7761
G0 F4500 X54.633 Y77.402
G1 F1800 X49.678 Y72.447 E47.41843
G0 F4500 X49.183 Y72.447
G1 F1800 X54.138 Y77.402 E48.06077
G0 F4500 X53.643 Y77.402
G1 F1800 X48.688 Y72.447 E48.7031
G0 F4500 X48.193 Y72.447
G1 F1800 X53.148 Y77.402 E49.34544
G0 F4500 X52.653 Y77.402
G1 F1800 X47.698 Y72.447 E49.98778
G0 F4500 X47.203 Y72.447
G1 F1800 X52.159 Y77.402 E50.63018
G0 F4500 X51.664 Y77.402
G1 F1800 X46.708 Y72.447 E51.27258
G0 F4500 X46.213 Y72.447
G1 F1800 X51.169 Y77.402 E51.91498
G0 F4500 X50.674 Y77.402
G1 F1800 X45.718 Y72.447 E52.55738
G0 F4500 X45.223 Y72.447
G1 F1800 X50.179 Y77.402 E53.19978
G0 F4500 X49.684 Y77.402
G1 F1800 X44.728 Y72.447 E53.84218
G0 F4500 X44.233 Y72.447
G1 F1800 X49.189 Y77.402 E54.48458
G0 F4500 X48.694 Y77.402
G1 F1800 X43.738 Y72.447 E55.12698
G0 F4500 X43.243 Y72.447
G1 F1800 X48.199 Y77.402 E55.76938
G0 F4500 X47.704 Y77.402
G1 F1800 X42.748 Y72.447 E56.41178
G0 F4500 X42.253 Y72.447
G1 F1800 X47.209 Y77.402 E57.05418
G0 F4500 X46.714 Y77.402
G1 F1800 X41.758 Y72.447 E57.69658
G0 F4500 X41.263 Y72.447
G1 F1800 X46.368 Y77.551 E58.3583
G0 F4500 X46.368 Y78.046
G1 F1800 X40.768 Y72.447 E59.08419
G1 X40.706 Y72.385
G0 F4500 X40.706 Y72.366
G0 X36.402 Y72.438
G0 X36.402 Y77.414
G0 X45.33 Y77.585
G0 X45.411 Y77.585
G1 F1800 X46.368 Y78.541 E59.20818
G0 F4500 X46.368 Y79.036
G1 F1800 X45.411 Y78.08 E59.33218
G0 F4500 X45.411 Y78.575
G1 F1800 X46.368 Y79.531 E59.45617
G0 F4500 X46.368 Y80.026
G1 F1800 X45.411 Y79.07 E59.58017
G0 F4500 X45.411 Y79.565
G1 F1800 X46.368 Y80.521 E59.70416
G0 F4500 X46.368 Y81.016
G1 F1800 X45.411 Y80.06 E59.82815
G0 F4500 X45.411 Y80.555
G1 F1800 X46.26 Y81.403 E59.93815
G0 F4500 X45.765 Y81.403
G1 F1800 X45.411 Y81.049 E59.98404
G0 F4500 X45.33 Y81.049
G0 X45.23 Y77.486
G0 X45.23 Y77.403
G1 F1800 X40.273 Y72.447 E60.62657
G0 F4500 X39.778 Y72.447
G1 F1800 X44.735 Y77.403 E61.2691
G0 F4500 X44.24 Y77.403
G1 F1800 X39.284 Y72.447 E61.91157
G0 F4500 X38.789 Y72.447
G1 F1800 X43.745 Y77.403 E62.55403
G0 F4500 X43.25 Y77.403
G1 F1800 X38.294 Y72.447 E63.1965
G0 F4500 X37.799 Y72.447
G1 F1800 X42.755 Y77.403 E63.83896
G0 F4500 X42.26 Y77.403
G1 F1800 X37.304 Y72.447 E64.48143
G0 F4500 X36.809 Y72.447
G1 F1800 X41.765 Y77.403 E65.12389
G0 F4500 X41.27 Y77.403
G1 F1800 X36.411 Y72.544 E65.75378
G0 F4500 X36.411 Y73.039
G1 F1800 X40.775 Y77.403 E66.31951
G0 F4500 X40.28 Y77.403
G1 F1800 X36.411 Y73.534 E66.82106
G0 F4500 X36.411 Y74.029
G1 F1800 X39.785 Y77.403 E67.25844
G0 F4500 X39.29 Y77.403
G1 F1800 X36.411 Y74.524 E67.63166
G0 F4500 X36.411 Y75.019
G1 F1800 X38.795 Y77.403 E67.94071
G0 F4500 X38.3 Y77.403
G1 F1800 X36.411 Y75.514 E68.18559
G0 F4500 X36.411 Y76.009
G1 F1800 X37.805 Y77.403 E68.3663
G0 F4500 X37.31 Y77.403
G1 F1800 X36.411 Y76.504 E68.48284
G0 F4500 X36.411 Y76.999
G1 F1800 X36.815 Y77.403 E68.53521
G0 F4500 X36.815 Y77.551
G10
;MESH:WireConnector.3mf
G0 X36.402 Y72.438
G0 X55.851 Y71.965
G0 X57.086 Y71.965
G0 X62.631 Y71.95
G0 X63.527 Y71.948
G0 X64.005 Y71.001
;TYPE:WALL-INNER
G11
G1 F1800 X63.85 Y71.225 E68.56095
G1 X63.848 Y69.784 E68.69713
G1 X63.847 Y69.408 E68.73266
G1 X63.988 Y69.783 E68.74159
G1 X64.245 Y70.074 E68.77828
G1 X64.543 Y70.261 E68.81153
G1 X64.893 Y70.364 E68.846
G1 X65.282 Y70.358 E68.88277
G1 X65.758 Y70.177 E68.93089
G1 X66.058 Y69.912 E68.96872
G1 X66.297 Y69.46 E69.01704
G1 X66.297 Y69.911 E69.03059
G1 X66.3 Y71.216 E69.15392
G1 X66.197 Y71.054 E69.17206
G1 X65.745 Y70.72 E69.22517
G1 X65.223 Y70.576 E69.27634
G1 X64.995 Y70.571 E69.28769
G1 X64.468 Y70.692 E69.33878
G1 X64.005 Y71.001 E69.39139
G0 F4500 X63.908 Y68.558
G1 F1800 X63.845 Y68.776 E69.41283
G1 X63.879 Y68.437 E69.42301
G1 X63.971 Y68.283 E69.43997
G1 X64.21 Y68.148 E69.4659
G1 X63.908 Y68.558 E69.49238
G0 F4500 X65.058 Y68.106
G0 X66.135 Y68.389
G1 F1800 X65.917 Y68.144 E69.52337
G1 X66.134 Y68.247
G1 X66.236 Y68.378 E69.53375
G1 X66.295 Y68.607 E69.5561
G1 X66.293 Y68.718 E69.56659
G1 X66.135 Y68.389 E69.57882
G0 F4500 X66.305 Y71.938
G0 X65.999 Y73.061
G0 X65.599 Y73.535
G1 F1800 X65.804 Y73.414 E69.60131
G1 X65.811 Y77.07 E69.9468
G1 X64.361 Y77.073 E70.08383
G1 X64.353 Y73.422 E70.42885
G1 X64.484 Y73.508 E70.44366
G1 X65.044 Y73.627 E70.49776
G1 X65.599 Y73.535 E70.55092
G0 F4500 X66.129 Y73.486
;TYPE:WALL-OUTER
G1 F1800 X66.137 Y77.394 E70.92023
G1 X64.037 Y77.399 E71.11868
G1 X64.028 Y73.491 E71.48799
G1 X63.717 Y73.249 E71.52523
G1 X63.575 Y72.999 E71.5524
G1 X63.528 Y72.723 E71.57885
G1 X63.52 Y68.602 E71.96829
G1 X63.569 Y68.321 E71.99525
G1 X63.724 Y68.064 E72.02361
G1 X63.951 Y67.889 E72.05069
G1 X64.222 Y67.804 E72.07753
G1 X64.33 Y67.798 E72.08775
G1 X65.057 Y67.797 E72.15646
G1 X65.813 Y67.795 E72.2279
G1 X66.107 Y67.848 E72.25613
G1 X66.356 Y68.002 E72.2838
G1 X66.528 Y68.224 E72.31034
G1 X66.613 Y68.498 E72.33745
G1 X66.62 Y68.606 E72.34767
G1 X66.628 Y72.721 E72.73654
G1 X66.58 Y72.999 E72.7632
G1 X66.44 Y73.243 E72.78978
G1 X66.129 Y73.486 E72.82708
G0 F4500 X66.129 Y73.686
G0 X65.88 Y73.686
G0 X64.559 Y73.446
G0 X64.611 Y73.203
G1 F1800 X65.051 Y73.296 E72.86958
G1 X65.486 Y73.224 E72.91125
G1 X65.866 Y72.999 E72.95298
G1 X66.138 Y72.654 E72.9945
G1 X66.243 Y72.377 E73.02249
G1 X66.266 Y71.937 E73.06413
G1 X66.191 Y71.651 E73.09207
G1 X65.955 Y71.279 E73.1337
G1 X65.6 Y71.017 E73.17539
G1 X65.176 Y70.9 E73.21696
G1 X65.028 Y70.897 E73.23095
G1 X64.599 Y70.995 E73.27253
G1 X64.237 Y71.237 E73.31368
G1 X63.982 Y71.605 E73.35599
G1 X63.878 Y72.033 E73.39761
G1 X63.896 Y72.32 E73.42479
G1 X63.986 Y72.601 E73.45267
G1 X64.243 Y72.961 E73.49447
G1 X64.611 Y73.203 E73.53609
G0 F4500 X64.806 Y73.244
G0 X64.754 Y73.488
G0 X63.857 Y72.327
G0 X63.833 Y71.516
G0 X64.608 Y70.201
G0 X64.678 Y69.962
G1 F1800 X64.937 Y70.038 E73.5616
G1 X65.22 Y70.034 E73.58835
G1 X65.587 Y69.894 E73.62547
G1 X65.798 Y69.708 E73.65205
G1 X65.986 Y69.352 E73.69009
G1 X66.021 Y69.084 E73.71563
G1 X65.979 Y68.815 E73.74136
G1 X65.862 Y68.571 E73.76693
G1 X65.682 Y68.369 E73.7925
G1 X65.453 Y68.226 E73.81801
G1 X65.058 Y68.145 E73.85612
G1 X64.665 Y68.236 E73.89424
G1 X64.438 Y68.387 E73.92
G1 X64.204 Y68.704 E73.95724
G1 X64.129 Y68.964 E73.98281
G1 X64.132 Y69.245 E74.00937
G1 X64.271 Y69.612 E74.04645
G1 X64.458 Y69.824 E74.07317
G1 X64.678 Y69.962 E74.09771
G0 F4500 X64.87 Y70.018
G0 X64.212 Y70.455
;TYPE:SKIN
G1 F1800 X64.189 Y70.471 E74.10028
G1 X64.189 Y70.44 E74.10312
G1 X64.212 Y70.455 E74.10563
G0 F4500 X65.958 Y70.454
G1 F1800 X65.959 Y70.454 E74.10573
G1 X65.959 Y70.455 E74.10582
G1 X65.958 Y70.454 E74.10595
G0 F4500 X66.302 Y71.503
G0 X66.282 Y72.385
G0 X65.465 Y73.902
G1 F1800 X65.471 Y76.73 E74.36518
G1 X64.701 Y76.733 E74.43576
G1 X64.694 Y73.9 E74.69545
G1 X65.036 Y73.973 E74.7275
G1 X65.465 Y73.902 E74.76736
G0 F4500 X65.195 Y74.104
G1 F1800 X65.309 Y74.218 E74.78214
G0 F4500 X64.851 Y74.256
G1 F1800 X65.309 Y74.714 E74.84151
G0 F4500 X64.853 Y74.752
G1 F1800 X65.311 Y75.21 E74.90088
G0 F4500 X64.854 Y75.248
G1 F1800 X65.311 Y75.706 E74.96019
G0 F4500 X64.855 Y75.744
G1 F1800 X65.312 Y76.202 E75.0195
G0 F4500 X65.188 Y76.573
G1 F1800 X64.856 Y76.24 E75.0626
G0 F4500 X64.535 Y76.24
G10
;MESH:WireConnector.3mf(1)
G0 X65.973 Y77.23
G0 X65.975 Y78.29
G0 X66.923 Y79.315
G0 X67.982 Y79.313
G0 X68.356 Y83.008
;TYPE:WALL-INNER
G11
G1 F1800 X68.151 Y83.129 E75.0851
G1 X68.144 Y79.473 E75.43059
G1 X69.594 Y79.47 E75.56762
G1 X69.601 Y83.122 E75.91273
G1 X69.461 Y83.031 E75.92851
G1 X68.91 Y82.916 E75.9817
G1 X68.356 Y83.008 E76.03477
G0 F4500 X69.41 Y83.16
G0 X70.008 Y83.938
G0 X70.088 Y85.054
G0 X69.813 Y85.658
G1 F1800 X70.105 Y85.332 E76.07613
G1 X70.108 Y87.092 E76.24245
G1 X69.958 Y86.751 E76.27765
G1 X69.709 Y86.469 E76.31321
G1 X69.399 Y86.277 E76.34766
G1 X69.051 Y86.176 E76.38191
G1 X68.518 Y86.219 E76.43244
G1 X68.168 Y86.386 E76.46909
G1 X67.811 Y86.749 E76.5172
G1 X67.658 Y87.09 E76.55252
G1 X67.655 Y85.328 E76.71903
G1 X67.894 Y85.62 E76.75469
G1 X68.386 Y85.895 E76.80795
G1 X68.94 Y85.976 E76.85407
G1 X69.477 Y85.854 E76.90611
G1 X69.813 Y85.658 E76.94287
G0 F4500 X70.051 Y87.979
G1 F1800 X70.11 Y87.715 E76.96843
G1 X70.073 Y88.114 E76.97907
G1 X69.986 Y88.257 E76.99489
G1 X69.741 Y88.396 E77.02151
G1 X70.051 Y87.979 E77.04794
G0 F4500 X68.731 Y88.415
G0 X67.811 Y88.143
G1 F1800 X68.036 Y88.398 E77.08008
G1 X67.824 Y88.298 E77.08148
G1 X67.717 Y88.159 E77.09166
G1 X67.66 Y87.928 E77.11414
G1 X67.66 Y87.809 E77.12539
G1 X67.811 Y88.143 E77.13736
G0 F4500 X68.628 Y88.362
;TYPE:WALL-OUTER
G1 F1800 X68.898 Y88.398 E77.1631
G1 X69.165 Y88.355 E77.18865
G1 X69.509 Y88.164 E77.22584
G1 X69.749 Y87.841 E77.26386
G1 X69.836 Y87.446 E77.30209
G1 X69.791 Y87.166 E77.32889
G1 X69.683 Y86.93 E77.35341
G1 X69.497 Y86.72 E77.37992
G1 X69.266 Y86.577 E77.4056
G1 X69.018 Y86.505 E77.43
G1 X68.604 Y86.538 E77.46925
G1 X68.36 Y86.655 E77.49482
G1 X68.084 Y86.935 E77.53197
G1 X67.969 Y87.192 E77.55858
G1 X67.933 Y87.459 E77.58404
G1 X67.976 Y87.727 E77.60969
G1 X68.086 Y87.963 E77.6343
G1 X68.272 Y88.174 E77.66088
G1 X68.628 Y88.362 E77.69892
G0 F4500 X68.826 Y88.388
G0 X68.812 Y88.487
G0 X67.927 Y88.069
G0 X67.78 Y87.238
G0 X68.37 Y85.799
G0 X68.492 Y85.582
G1 F1800 X68.927 Y85.646 E77.74047
G1 X69.356 Y85.548 E77.78206
G1 X69.605 Y85.403 E77.80929
G1 X69.905 Y85.068 E77.85178
G1 X70.06 Y84.655 E77.89347
G1 X70.077 Y84.369 E77.92054
G1 X69.969 Y83.942 E77.96216
G1 X69.713 Y83.582 E78.00391
G1 X69.335 Y83.337 E78.04648
G1 X68.903 Y83.247 E78.08818
G1 X68.469 Y83.319 E78.12975
G1 X68.088 Y83.543 E78.17152
G1 X67.817 Y83.889 E78.21305
G1 X67.712 Y84.167 E78.24113
G1 X67.687 Y84.599 E78.28202
G1 X67.826 Y85.024 E78.32428
G1 X68.106 Y85.366 E78.36605
G1 X68.492 Y85.582 E78.40785
G0 F4500 X68.69 Y85.611
G0 X68.654 Y85.857
G0 X69.427 Y85.727
G0 X70.084 Y85.131
G0 X69.973 Y83.148
G0 X69.926 Y83.051
G1 F1800 X70.243 Y83.302 E78.44606
G1 X70.38 Y83.538 E78.47185
G1 X70.427 Y83.819 E78.49877
G1 X70.435 Y87.94 E78.88821
G1 X70.382 Y88.231 E78.91616
G1 X70.232 Y88.477 E78.94339
G1 X70.006 Y88.653 E78.97045
G1 X69.735 Y88.739 E78.99732
G1 X69.625 Y88.745 E79.00773
G1 X68.899 Y88.746 E79.07634
G1 X68.142 Y88.748 E79.14788
G1 X67.843 Y88.692 E79.17662
G1 X67.601 Y88.542 E79.20353
G1 X67.424 Y88.312 E79.23096
G1 X67.343 Y88.052 E79.25669
G1 X67.335 Y87.937 E79.26758
G1 X67.327 Y83.822 E79.65645
G1 X67.378 Y83.535 E79.684
G1 X67.515 Y83.3 E79.7097
G1 X67.826 Y83.057 E79.747
G1 X67.818 Y79.149 E80.11631
G1 X69.918 Y79.144 E80.31476
G1 X69.926 Y83.051 E80.68397
G0 F4500 X70.082 Y83.175
G0 X69.26 Y82.641
;TYPE:SKIN
G1 F1800 X68.917 Y82.57 E80.71608
G1 X68.49 Y82.641 E80.75576
G1 X68.484 Y79.813 E81.01499
G1 X69.254 Y79.81 E81.08557
G1 X69.26 Y82.641 E81.34507
G0 F4500 X69.181 Y80.483
G0 X69.098 Y80.482
G1 F1800 X68.64 Y80.025 E81.40438
G0 F4500 X68.642 Y80.521
G1 F1800 X69.099 Y80.979 E81.46369
G0 F4500 X68.643 Y81.017
G1 F1800 X69.1 Y81.474 E81.52293
G0 F4500 X68.644 Y81.513
G1 F1800 X69.102 Y81.971 E81.5823
G0 F4500 X68.645 Y82.01
G1 F1800 X69.077 Y82.441 E81.63824
G0 F4500 X69.06 Y82.523
G0 X69.746 Y83.403
G0 X70.116 Y84.366
G0 X69.766 Y86.079
G1 F1800 X69.766 Y86.105 E81.64062
G1 X69.745 Y86.091 E81.64294
