;FLAVOR:UltiGCode
;TIME:1458
;MATERIAL:2329
;MATERIAL2:0
;NOZZLE_DIAMETER:0.4
;MINX:68.992
;MINY:86.886
;MINZ:0.27
;MAXX:104.758
;MAXY:122.65
;MAXZ:8.07
;Generated with Cura_SteamEngine 4.13.1
M82 ;absolute extrusion mode
G0 F3000 Y50 ;avoid prime blob
G92 E0
G92 E0
G10
;LAYER_COUNT:53
;LAYER:0
M107
G0 F4500 X75.662 Y90.834 Z0.27
;TYPE:SKIRT
G11
G1 F1800 X75.824 Y90.707 E0.01945
G1 X76.514 Y90.191 E0.10087
G1 X76.789 Y90 E0.13251
G1 X77.577 Y89.49 E0.22122
G1 X77.799 Y89.358 E0.24562
G1 X78.46 Y88.987 E0.31725
G1 X78.766 Y88.829 E0.3498
G1 X79.56 Y88.449 E0.43298
G1 X79.888 Y88.305 E0.46683
G1 X80.584 Y88.026 E0.53769
G1 X80.921 Y87.904 E0.57156
G1 X81.751 Y87.634 E0.65404
G1 X82.1 Y87.533 E0.68838
G1 X82.848 Y87.343 E0.76131
G1 X83.207 Y87.264 E0.79604
G1 X83.995 Y87.117 E0.8718
G1 X84.316 Y87.068 E0.90248
G1 X85.197 Y86.963 E0.98632
G1 X85.507 Y86.936 E1.01573
G1 X86.333 Y86.892 E1.0939
G1 X86.647 Y86.886 E1.12358
G1 X87.508 Y86.896 E1.20495
G1 X87.855 Y86.912 E1.23777
G1 X88.604 Y86.97 E1.30877
G1 X89.197 Y87.037 E1.36516
G1 X89.715 Y87.113 E1.41464
G1 X89.846 Y87.135 E1.42719
G1 X90.384 Y87.233 E1.47887
G1 X90.882 Y87.338 E1.52696
G1 X91.374 Y87.459 E1.57484
G1 X91.963 Y87.625 E1.63267
G1 X92.092 Y87.664 E1.64541
G1 X92.58 Y87.82 E1.69382
G1 X93.16 Y88.028 E1.75205
G1 X93.915 Y88.328 E1.82882
G1 X94.448 Y88.565 E1.88395
G1 X95.471 Y89.086 E1.99243
G1 X95.698 Y89.212 E2.01697
G1 X96.258 Y89.548 E2.07868
G1 X96.959 Y89.999 E2.15745
G1 X97.177 Y90.151 E2.18257
G1 X98.001 Y90.767 E2.27979
G1 X98.488 Y91.167 E2.33934
G1 X99.076 Y91.696 E2.41409
G1 X99.487 Y92.091 E2.46796
G1 X99.576 Y92.179 E2.47979
G1 X99.945 Y92.56 E2.52991
G1 X100.152 Y92.788 E2.55901
G1 X100.796 Y93.544 E2.65286
G1 X101.002 Y93.803 E2.68413
G1 X101.412 Y94.354 E2.74903
G1 X101.683 Y94.743 E2.79384
G1 X102.105 Y95.394 E2.86715
G1 X102.282 Y95.69 E2.89974
G1 X102.735 Y96.503 E2.98769
G1 X102.82 Y96.672 E3.00557
G1 X103.209 Y97.487 E3.09091
G1 X103.31 Y97.716 E3.11456
G1 X103.627 Y98.508 E3.19518
G1 X103.766 Y98.895 E3.23404
G1 X103.993 Y99.595 E3.30358
G1 X104.135 Y100.089 E3.35215
G1 X104.286 Y100.693 E3.41099
G1 X104.423 Y101.325 E3.4721
G1 X104.518 Y101.838 E3.5214
G1 X104.581 Y102.261 E3.56181
G1 X104.683 Y103.123 E3.64384
G1 X104.705 Y103.378 E3.66803
G1 X104.752 Y104.289 E3.75423
G1 X104.758 Y104.609 E3.78448
G1 X104.747 Y105.425 E3.8616
G1 X104.732 Y105.757 E3.893
G1 X104.664 Y106.611 E3.97396
G1 X104.626 Y106.944 E4.00563
G1 X104.508 Y107.758 E4.08336
G1 X104.464 Y108.004 E4.10698
G1 X104.274 Y108.902 E4.19372
G1 X104.185 Y109.263 E4.22885
G1 X103.975 Y110.007 E4.30191
G1 X103.804 Y110.546 E4.35534
G1 X103.537 Y111.268 E4.42809
G1 X103.489 Y111.384 E4.43995
G1 X103.057 Y112.385 E4.54298
G1 X102.975 Y112.553 E4.56065
G1 X102.59 Y113.305 E4.64048
G1 X102.468 Y113.526 E4.66434
G1 X101.949 Y114.392 E4.75975
G1 X101.8 Y114.623 E4.78572
G1 X101.409 Y115.192 E4.85097
G1 X101.181 Y115.5 E4.88718
G1 X100.655 Y116.169 E4.9676
G1 X100.484 Y116.372 E4.99268
G1 X99.8 Y117.129 E5.0891
G1 X99.627 Y117.308 E5.11262
G1 X99.071 Y117.849 E5.18593
G1 X98.841 Y118.059 E5.21536
G1 X98.143 Y118.655 E5.3021
G1 X97.869 Y118.874 E5.33525
G1 X97.284 Y119.311 E5.40425
G1 X96.992 Y119.514 E5.43786
G1 X96.25 Y119.998 E5.52157
G1 X95.979 Y120.161 E5.55146
G1 X95.144 Y120.628 E5.64187
G1 X94.975 Y120.713 E5.65975
G1 X94.187 Y121.089 E5.74225
G1 X93.887 Y121.221 E5.77323
G1 X93.15 Y121.516 E5.84825
G1 X92.829 Y121.632 E5.8805
G1 X92.006 Y121.9 E5.96229
G1 X91.664 Y121.998 E5.99591
G1 X90.893 Y122.195 E6.07111
G1 X90.567 Y122.267 E6.10266
G1 X89.682 Y122.43 E6.1877
G1 X89.435 Y122.467 E6.2113
G1 X88.497 Y122.578 E6.30056
G1 X88.245 Y122.6 E6.32447
G1 X87.406 Y122.644 E6.40386
G1 X87.102 Y122.65 E6.4326
G1 X86.241 Y122.64 E6.51397
G1 X85.889 Y122.624 E6.54726
G1 X85.189 Y122.569 E6.61362
G1 X85.057 Y122.556 E6.62615
G1 X84.554 Y122.499 E6.67399
G1 X83.985 Y122.418 E6.7283
G1 X83.564 Y122.343 E6.76871
G1 X82.78 Y122.178 E6.84443
G1 X82.534 Y122.118 E6.86835
G1 X81.73 Y121.893 E6.94725
G1 X81.146 Y121.709 E7.00511
G1 X80.645 Y121.529 E7.05542
G1 X79.871 Y121.221 E7.13414
G1 X79.405 Y121.018 E7.18218
G1 X79.001 Y120.825 E7.22449
G1 X78.447 Y120.542 E7.28328
G1 X78.09 Y120.345 E7.32181
G1 X77.577 Y120.04 E7.37821
G1 X77.459 Y119.967 E7.39132
G1 X76.785 Y119.533 E7.46707
G1 X76.569 Y119.383 E7.49193
G1 X75.86 Y118.855 E7.57546
G1 X75.452 Y118.53 E7.62476
G1 X75.174 Y118.293 E7.65928
G1 X74.689 Y117.855 E7.72104
G1 X74.288 Y117.471 E7.7735
G1 X74.192 Y117.376 E7.78627
G1 X73.783 Y116.953 E7.84187
G1 X73.548 Y116.693 E7.87499
G1 X72.97 Y116.014 E7.95925
G1 X72.742 Y115.727 E7.99389
G1 X72.332 Y115.176 E8.05879
G1 X72.079 Y114.812 E8.10069
G1 X71.628 Y114.116 E8.17906
G1 X71.494 Y113.893 E8.20364
G1 X70.977 Y112.961 E8.30436
G1 X70.887 Y112.78 E8.32346
G1 X70.497 Y111.953 E8.40987
G1 X70.421 Y111.772 E8.42842
G1 X70.105 Y110.978 E8.50918
G1 X69.961 Y110.576 E8.54953
G1 X69.795 Y110.062 E8.60057
G1 X69.755 Y109.932 E8.61343
G1 X69.585 Y109.335 E8.67209
G1 X69.488 Y108.949 E8.7097
G1 X69.317 Y108.158 E8.78617
G1 X69.209 Y107.56 E8.8436
G1 X69.168 Y107.27 E8.87128
G1 X69.064 Y106.383 E8.95567
G1 X69.043 Y106.131 E8.97957
G1 X68.998 Y105.255 E9.06246
G1 X68.992 Y104.92 E9.09412
G1 X69.004 Y104.072 E9.17427
G1 X69.016 Y103.82 E9.19811
G1 X69.089 Y102.901 E9.28523
G1 X69.124 Y102.593 E9.31452
G1 X69.242 Y101.779 E9.39225
G1 X69.299 Y101.46 E9.42287
G1 X69.477 Y100.63 E9.50309
G1 X69.564 Y100.277 E9.53745
G1 X69.787 Y99.489 E9.61484
G1 X69.947 Y98.987 E9.66463
G1 X70.214 Y98.265 E9.73737
G1 X70.263 Y98.146 E9.74953
G1 X70.63 Y97.29 E9.83755
G1 X70.771 Y96.989 E9.86896
G1 X71.118 Y96.307 E9.94127
G1 X71.284 Y96.005 E9.97383
G1 X71.788 Y95.164 E10.06649
G1 X71.923 Y94.955 E10.09
G1 X72.447 Y94.198 E10.177
G1 X72.596 Y94 E10.20042
G1 X73.095 Y93.367 E10.27659
G1 X73.259 Y93.172 E10.30067
G1 X73.924 Y92.434 E10.39455
G1 X74.1 Y92.251 E10.41854
G1 X74.701 Y91.666 E10.4978
G1 X74.945 Y91.444 E10.52897
G1 X75.662 Y90.834 E10.61793
G0 F4500 X75.881 Y91.107
G1 F1800 X76.034 Y90.987 E10.63631
G1 X76.724 Y90.471 E10.71773
G1 X76.979 Y90.294 E10.74706
G1 X77.759 Y89.789 E10.83487
G1 X77.971 Y89.663 E10.85818
G1 X78.632 Y89.292 E10.92981
G1 X78.917 Y89.144 E10.96015
G1 X79.711 Y88.764 E11.04334
G1 X80.018 Y88.63 E11.07499
G1 X80.714 Y88.351 E11.14585
G1 X81.03 Y88.237 E11.1776
G1 X81.86 Y87.967 E11.26008
G1 X82.186 Y87.872 E11.29217
G1 X83.031 Y87.659 E11.37452
G1 X83.272 Y87.608 E11.3978
G1 X84.06 Y87.461 E11.47355
G1 X84.358 Y87.416 E11.50203
G1 X85.348 Y87.299 E11.59623
G1 X85.525 Y87.286 E11.613
G1 X86.351 Y87.242 E11.69117
G1 X86.643 Y87.236 E11.71877
G1 X87.504 Y87.246 E11.80014
G1 X87.828 Y87.261 E11.83079
G1 X88.577 Y87.319 E11.90179
G1 X89.146 Y87.383 E11.95589
G1 X89.664 Y87.459 E12.00537
G1 X89.784 Y87.479 E12.01687
G1 X90.322 Y87.577 E12.06854
G1 X90.905 Y87.702 E12.12489
G1 X91.279 Y87.796 E12.16133
G1 X91.868 Y87.962 E12.21916
G1 X91.985 Y87.997 E12.2307
G1 X92.473 Y88.153 E12.27912
G1 X93.031 Y88.353 E12.33513
G1 X93.786 Y88.653 E12.41191
G1 X94.289 Y88.877 E12.46394
G1 X95.312 Y89.398 E12.57243
G1 X95.519 Y89.512 E12.59476
G1 X95.968 Y89.78 E12.64417
G1 X96.769 Y90.294 E12.73411
G1 X96.968 Y90.431 E12.75694
G1 X97.686 Y90.966 E12.84156
G1 X98.262 Y91.435 E12.91175
G1 X98.841 Y91.956 E12.98536
G1 X99.244 Y92.342 E13.03809
G1 X99.693 Y92.804 E13.09897
G1 X99.885 Y93.015 E13.12593
G1 X100.529 Y93.771 E13.21978
G1 X100.721 Y94.012 E13.2489
G1 X101.197 Y94.654 E13.32443
G1 X101.389 Y94.934 E13.35651
G1 X101.811 Y95.585 E13.42982
G1 X101.977 Y95.861 E13.46026
G1 X102.374 Y96.571 E13.53713
G1 X102.504 Y96.823 E13.56393
G1 X102.893 Y97.638 E13.64927
G1 X102.985 Y97.846 E13.67076
G1 X103.302 Y98.638 E13.75138
G1 X103.433 Y99.003 E13.78802
G1 X103.66 Y99.703 E13.85757
G1 X103.916 Y100.649 E13.95018
G1 X103.944 Y100.767 E13.96164
G1 X104.081 Y101.399 E14.02275
G1 X104.174 Y101.9 E14.0709
G1 X104.234 Y102.302 E14.10931
G1 X104.336 Y103.164 E14.19134
G1 X104.355 Y103.396 E14.21334
G1 X104.402 Y104.307 E14.29954
G1 X104.408 Y104.605 E14.32771
G1 X104.397 Y105.421 E14.40483
G1 X104.383 Y105.729 E14.43396
G1 X104.315 Y106.583 E14.51492
G1 X104.28 Y106.894 E14.5445
G1 X104.162 Y107.708 E14.62222
G1 X104.122 Y107.932 E14.64373
G1 X103.932 Y108.83 E14.73047
G1 X103.848 Y109.168 E14.76338
G1 X103.638 Y109.912 E14.83643
G1 X103.473 Y110.432 E14.88799
G1 X103.211 Y111.14 E14.95933
G1 X102.787 Y112.13 E15.0611
G1 X102.664 Y112.393 E15.08854
G1 X102.279 Y113.145 E15.16838
G1 X102.167 Y113.347 E15.1902
G1 X101.701 Y114.127 E15.27607
G1 X101.511 Y114.424 E15.30938
G1 X101.048 Y115.095 E15.38642
G1 X100.906 Y115.284 E15.40876
G1 X100.38 Y115.953 E15.48919
G1 X100.224 Y116.137 E15.51198
G1 X99.54 Y116.894 E15.60839
G1 X99.383 Y117.057 E15.62978
G1 X98.827 Y117.598 E15.70309
G1 X98.614 Y117.793 E15.73038
G1 X97.838 Y118.454 E15.82671
G1 X97.66 Y118.594 E15.84811
G1 X97.075 Y119.031 E15.91712
G1 X96.801 Y119.22 E15.94857
G1 X96.059 Y119.704 E16.03229
G1 X95.808 Y119.856 E16.06002
G1 X95.081 Y120.264 E16.1388
G1 X94.824 Y120.397 E16.16615
G1 X94.036 Y120.773 E16.24865
G1 X93.757 Y120.896 E16.27747
G1 X93.02 Y121.191 E16.35249
G1 X92.72 Y121.299 E16.38262
G1 X91.897 Y121.567 E16.46441
G1 X91.578 Y121.659 E16.49579
G1 X90.683 Y121.886 E16.58304
G1 X90.503 Y121.923 E16.60041
G1 X89.618 Y122.086 E16.68545
G1 X89.394 Y122.12 E16.70686
G1 X88.456 Y122.231 E16.79612
G1 X88.227 Y122.25 E16.81783
G1 X87.388 Y122.294 E16.89722
G1 X87.106 Y122.3 E16.92388
G1 X86.245 Y122.29 E17.00525
G1 X85.917 Y122.275 E17.03628
G1 X85.096 Y122.209 E17.11411
G1 X84.593 Y122.152 E17.16195
G1 X84.035 Y122.072 E17.21522
G1 X83.636 Y122 E17.25354
G1 X82.852 Y121.835 E17.32925
G1 X82.628 Y121.781 E17.35102
G1 X81.824 Y121.556 E17.42992
G1 X81.253 Y121.375 E17.48652
G1 X80.775 Y121.204 E17.5345
G1 X80.001 Y120.896 E17.61322
G1 X79.256 Y120.56 E17.69045
G1 X79.16 Y120.513 E17.70055
G1 X78.511 Y120.18 E17.76948
G1 X78.269 Y120.044 E17.79572
G1 X77.756 Y119.739 E17.85212
G1 X77.649 Y119.673 E17.864
G1 X76.975 Y119.239 E17.93975
G1 X76.778 Y119.102 E17.96243
G1 X76.069 Y118.574 E18.04597
G1 X75.501 Y118.114 E18.11504
G1 X75.408 Y118.033 E18.12669
G1 X74.923 Y117.595 E18.18845
G1 X74.531 Y117.219 E18.23978
G1 X74.444 Y117.132 E18.2514
G1 X74.035 Y116.709 E18.30701
G1 X73.815 Y116.466 E18.33798
G1 X73.237 Y115.787 E18.42225
G1 X73.023 Y115.518 E18.45473
G1 X72.548 Y114.877 E18.53013
G1 X72.373 Y114.622 E18.55935
G1 X71.922 Y113.926 E18.63773
G1 X71.799 Y113.722 E18.66024
G1 X71.339 Y112.895 E18.74967
G1 X71.203 Y112.63 E18.77781
G1 X70.818 Y111.814 E18.86308
G1 X70.746 Y111.642 E18.8807
G1 X70.43 Y110.848 E18.96145
G1 X70.294 Y110.468 E18.9996
G1 X70.128 Y109.954 E19.05064
G1 X70.092 Y109.836 E19.0623
G1 X69.892 Y109.129 E19.13173
G1 X69.831 Y108.875 E19.15642
G1 X69.66 Y108.084 E19.23289
G1 X69.555 Y107.51 E19.28804
G1 X69.516 Y107.229 E19.31484
G1 X69.412 Y106.342 E19.39924
G1 X69.393 Y106.113 E19.42095
G1 X69.348 Y105.237 E19.50385
G1 X69.342 Y104.925 E19.53334
G1 X69.354 Y104.077 E19.61348
G1 X69.365 Y103.848 E19.63514
G1 X69.438 Y102.929 E19.72226
G1 X69.47 Y102.643 E19.74946
G1 X69.588 Y101.829 E19.82719
G1 X69.641 Y101.534 E19.85551
G1 X69.819 Y100.704 E19.93573
G1 X69.901 Y100.372 E19.96805
G1 X70.124 Y99.584 E20.04544
G1 X70.278 Y99.101 E20.09334
G1 X70.54 Y98.392 E20.16477
G1 X70.584 Y98.284 E20.17579
G1 X70.951 Y97.428 E20.26381
G1 X71.083 Y97.147 E20.29314
G1 X71.43 Y96.465 E20.36546
G1 X71.584 Y96.185 E20.39565
G1 X72.088 Y95.344 E20.48831
G1 X72.211 Y95.154 E20.5097
G1 X72.729 Y94.406 E20.59568
G1 X72.871 Y94.217 E20.61802
G1 X73.37 Y93.584 E20.69419
G1 X73.519 Y93.406 E20.71612
G1 X74.184 Y92.668 E20.81
G1 X74.344 Y92.502 E20.83179
G1 X74.945 Y91.917 E20.91105
G1 X75.173 Y91.71 E20.94015
G1 X75.881 Y91.107 E21.02803
G0 F4500 X76.1 Y91.38
G1 F1800 X76.244 Y91.267 E21.04533
G1 X76.934 Y90.751 E21.12675
G1 X77.17 Y90.587 E21.15391
G1 X77.941 Y90.088 E21.2407
G1 X78.142 Y89.968 E21.26282
G1 X78.803 Y89.597 E21.33445
G1 X79.068 Y89.46 E21.36264
G1 X79.862 Y89.08 E21.44582
G1 X80.149 Y88.955 E21.47541
G1 X80.946 Y88.637 E21.5565
G1 X81.138 Y88.57 E21.57571
G1 X82.07 Y88.268 E21.6683
G1 X82.272 Y88.212 E21.6881
G1 X83.108 Y88.001 E21.76958
G1 X83.336 Y87.952 E21.79162
G1 X84.124 Y87.805 E21.86737
G1 X84.399 Y87.763 E21.89366
G1 X85.28 Y87.658 E21.97751
G1 X85.544 Y87.635 E22.00255
G1 X86.37 Y87.591 E22.08072
G1 X86.639 Y87.586 E22.10614
G1 X87.5 Y87.596 E22.18751
G1 X87.801 Y87.609 E22.21598
G1 X88.55 Y87.667 E22.28697
G1 X89.095 Y87.73 E22.33882
G1 X89.721 Y87.823 E22.39863
G1 X90.259 Y87.921 E22.4503
G1 X90.822 Y88.042 E22.50472
G1 X91.184 Y88.133 E22.53999
G1 X91.773 Y88.299 E22.59782
G1 X91.879 Y88.331 E22.60829
G1 X92.472 Y88.522 E22.66716
G1 X92.901 Y88.678 E22.7103
G1 X93.656 Y88.978 E22.78707
G1 X94.13 Y89.189 E22.8361
G1 X95.153 Y89.71 E22.94459
G1 X95.339 Y89.813 E22.96468
G1 X95.879 Y90.137 E23.02419
G1 X96.58 Y90.588 E23.10296
G1 X96.759 Y90.712 E23.12354
G1 X97.477 Y91.247 E23.20816
G1 X98.035 Y91.702 E23.2762
G1 X98.112 Y91.769 E23.28584
G1 X98.607 Y92.216 E23.34887
G1 X99 Y92.594 E23.4004
G1 X99.073 Y92.666 E23.41009
G1 X99.442 Y93.047 E23.46021
G1 X99.619 Y93.242 E23.4851
G1 X100.263 Y93.998 E23.57895
G1 X100.44 Y94.221 E23.60585
G1 X100.909 Y94.854 E23.6803
G1 X101.095 Y95.124 E23.71128
G1 X101.517 Y95.775 E23.7846
G1 X101.671 Y96.031 E23.81283
G1 X102.114 Y96.826 E23.89883
G1 X102.188 Y96.973 E23.91439
G1 X102.577 Y97.788 E23.99973
G1 X102.66 Y97.976 E24.01915
G1 X102.977 Y98.768 E24.09976
G1 X103.1 Y99.111 E24.1342
G1 X103.358 Y99.911 E24.21363
G1 X103.577 Y100.735 E24.2942
G1 X103.602 Y100.841 E24.3045
G1 X103.739 Y101.473 E24.36561
G1 X103.848 Y102.072 E24.42314
G1 X103.886 Y102.343 E24.449
G1 X103.988 Y103.205 E24.53103
G1 X104.006 Y103.414 E24.55085
G1 X104.053 Y104.325 E24.63706
G1 X104.058 Y104.6 E24.66305
G1 X104.045 Y105.498 E24.74792
G1 X104.034 Y105.701 E24.76713
G1 X103.966 Y106.555 E24.84809
G1 X103.933 Y106.843 E24.87548
G1 X103.815 Y107.657 E24.95321
G1 X103.779 Y107.859 E24.9726
G1 X103.589 Y108.757 E25.05934
G1 X103.512 Y109.072 E25.08998
G1 X103.302 Y109.816 E25.16304
G1 X103.142 Y110.318 E25.21283
G1 X102.885 Y111.012 E25.28276
G1 X102.846 Y111.108 E25.29256
G1 X102.466 Y111.992 E25.38348
G1 X102.352 Y112.234 E25.40876
G1 X101.967 Y112.986 E25.4886
G1 X101.867 Y113.167 E25.50814
G1 X101.358 Y114.017 E25.60177
G1 X101.223 Y114.226 E25.62528
G1 X100.832 Y114.795 E25.69052
G1 X100.631 Y115.067 E25.72248
G1 X100.105 Y115.736 E25.8029
G1 X99.965 Y115.903 E25.8235
G1 X99.281 Y116.66 E25.91991
G1 X99.139 Y116.807 E25.93923
G1 X98.583 Y117.348 E26.01254
G1 X98.387 Y117.527 E26.03762
G1 X97.689 Y118.123 E26.12435
G1 X97.45 Y118.314 E26.15327
G1 X96.865 Y118.751 E26.22227
G1 X96.61 Y118.927 E26.25155
G1 X95.767 Y119.475 E26.34657
G1 X95.637 Y119.551 E26.3608
G1 X94.91 Y119.959 E26.43958
G1 X94.673 Y120.082 E26.46481
G1 X93.885 Y120.458 E26.54732
G1 X93.627 Y120.571 E26.57394
G1 X92.89 Y120.866 E26.64896
G1 X92.612 Y120.966 E26.67687
G1 X91.789 Y121.234 E26.75867
G1 X91.491 Y121.32 E26.78798
G1 X90.608 Y121.544 E26.87406
G1 X90.44 Y121.578 E26.89026
G1 X89.555 Y121.741 E26.9753
G1 X89.353 Y121.772 E26.99461
G1 X88.415 Y121.883 E27.08387
G1 X88.208 Y121.901 E27.10351
G1 X87.369 Y121.945 E27.1829
G1 X87.11 Y121.95 E27.20738
G1 X86.249 Y121.94 E27.28875
G1 X85.944 Y121.926 E27.31761
G1 X85.135 Y121.861 E27.3943
G1 X84.53 Y121.791 E27.45186
G1 X83.986 Y121.709 E27.50385
G1 X83.708 Y121.658 E27.53055
G1 X82.924 Y121.493 E27.60627
G1 X82.722 Y121.444 E27.62591
G1 X81.918 Y121.219 E27.70481
G1 X81.36 Y121.042 E27.76013
G1 X80.904 Y120.879 E27.80589
G1 X80.13 Y120.571 E27.88461
G1 X79.406 Y120.244 E27.95968
G1 X78.766 Y119.918 E28.02756
G1 X78.447 Y119.743 E28.06194
G1 X77.934 Y119.438 E28.11834
G1 X77.164 Y118.944 E28.20479
G1 X76.987 Y118.821 E28.22516
G1 X76.189 Y118.225 E28.31928
G1 X75.726 Y117.846 E28.37583
G1 X75.158 Y117.335 E28.44803
G1 X74.774 Y116.968 E28.49822
G1 X74.695 Y116.889 E28.50878
G1 X74.286 Y116.466 E28.56438
G1 X74.081 Y116.239 E28.59329
G1 X73.436 Y115.479 E28.68749
