;FLAVOR:UltiGCode
;TIME:2711
;MATERIAL:3581
;MATERIAL2:0
;NOZZLE_DIAMETER:0.4
;MINX:57.79
;MINY:74.828
;MINZ:0.27
;MAXX:152.939
;MAXY:97.902
;MAXZ:24.87
;Generated with Cura_SteamEngine 4.13.1
M82 ;absolute extrusion mode
G0 F3000 Y50 ;avoid prime blob
G92 E0
G92 E0
G10
;LAYER_COUNT:165
;LAYER:0
M107
G0 F4500 X59.181 Y80.388 Z0.27
;TYPE:SKIRT
G11
G1 F1800 X59.625 Y80.098 E0.05011
G1 X60.108 Y79.877 E0.10031
G1 X60.618 Y79.732 E0.15041
G1 X61.225 Y79.662 E0.20816
G1 X61.645 Y79.652 E0.24786
G1 X103.009 Y79.652 E4.15676
G1 X105.793 Y79.613 E4.41987
G1 X108.527 Y79.497 E4.67846
G1 X111.22 Y79.306 E4.93359
G1 X113.978 Y79.032 E5.19551
G1 X116.648 Y78.691 E5.44987
G1 X119.33 Y78.269 E5.70644
G1 X122.048 Y77.764 E5.96768
G1 X124.693 Y77.195 E6.22336
G1 X127.331 Y76.548 E6.48004
G1 X129.979 Y75.82 E6.73956
G1 X132.526 Y75.038 E6.99134
G1 X132.707 Y74.985 E7.00916
G1 X133.226 Y74.875 E7.05929
G1 X133.933 Y74.834 E7.12622
G1 X134.041 Y74.832 E7.13643
G1 X138.039 Y74.828 E7.51424
G1 X138.742 Y74.838 E7.58068
G1 X139.271 Y74.886 E7.63087
G1 X139.786 Y75.012 E7.68098
G1 X140.277 Y75.214 E7.73115
G1 X140.622 Y75.413 E7.76879
G1 X141.694 Y76.115 E7.88988
G1 X141.776 Y76.161 E7.89876
G1 X143.429 Y77.227 E8.08464
G1 X145.808 Y78.671 E8.34762
G1 X148.142 Y80.001 E8.60148
G1 X150.226 Y81.095 E8.82391
G1 X151.074 Y81.553 E8.91499
G1 X151.521 Y81.84 E8.96518
G1 X151.919 Y82.19 E9.01527
G1 X152.261 Y82.597 E9.06551
G1 X152.537 Y83.05 E9.11564
G1 X152.743 Y83.539 E9.16578
G1 X152.872 Y84.053 E9.21586
G1 X152.923 Y84.558 E9.26382
G1 X152.934 Y85.016 E9.30712
G1 X152.939 Y89.221 E9.70449
G1 X152.93 Y89.887 E9.76743
G1 X152.883 Y90.415 E9.81753
G1 X152.757 Y90.931 E9.86772
G1 X152.555 Y91.421 E9.91781
G1 X152.282 Y91.876 E9.96795
G1 X151.943 Y92.285 E10.01815
G1 X151.547 Y92.638 E10.06828
G1 X151.103 Y92.928 E10.1184
G1 X150.62 Y93.148 E10.16855
G1 X150.109 Y93.293 E10.21875
G1 X149.513 Y93.362 E10.27545
G1 X149.081 Y93.374 E10.31629
G1 X135.967 Y93.387 E11.55556
G1 X133.183 Y93.429 E11.81868
G1 X130.455 Y93.547 E12.07672
G1 X127.721 Y93.744 E12.33575
G1 X125.041 Y94.012 E12.59027
G1 X122.326 Y94.363 E12.84897
G1 X119.621 Y94.79 E13.10776
G1 X116.926 Y95.294 E13.36685
G1 X114.279 Y95.866 E13.62277
G1 X111.667 Y96.508 E13.87695
G1 X108.984 Y97.25 E14.14001
G1 X108.333 Y97.45 E14.20437
G1 X107.302 Y97.751 E14.30587
G1 X106.783 Y97.861 E14.356
G1 X106.092 Y97.9 E14.4214
G1 X105.985 Y97.902 E14.43152
G1 X61.977 Y97.902 E18.59027
G1 X61.279 Y97.893 E18.65624
G1 X60.75 Y97.846 E18.70643
G1 X60.234 Y97.72 E18.75662
G1 X59.743 Y97.519 E18.80676
G1 X59.288 Y97.246 E18.8569
G1 X58.879 Y96.908 E18.90704
G1 X58.526 Y96.512 E18.95717
G1 X58.236 Y96.068 E19.00729
G1 X58.016 Y95.585 E19.05744
G1 X57.87 Y95.074 E19.10767
G1 X57.8 Y94.463 E19.16578
G1 X57.79 Y94.035 E19.20624
G1 X57.79 Y83.829 E20.17071
G1 X57.799 Y83.14 E20.23582
G1 X57.846 Y82.611 E20.28601
G1 X57.972 Y82.096 E20.33611
G1 X58.173 Y81.605 E20.38625
G1 X58.446 Y81.15 E20.43639
G1 X58.785 Y80.741 E20.48659
G1 X59.181 Y80.388 E20.53673
G0 F4500 X59.518 Y80.575
G1 F1800 X59.954 Y80.322 E20.58436
G1 X60.424 Y80.141 E20.63196
G1 X60.916 Y80.037 E20.67948
G1 X61.556 Y80.003 E20.74004
G1 X103.014 Y80.002 E24.65783
G1 X105.813 Y79.962 E24.92236
G1 X108.529 Y79.847 E25.17925
G1 X111.247 Y79.654 E25.43675
G1 X114.018 Y79.38 E25.69988
G1 X116.678 Y79.039 E25.95331
G1 X119.414 Y78.609 E26.21504
G1 X122.117 Y78.107 E26.47484
G1 X124.782 Y77.533 E26.73246
G1 X127.431 Y76.885 E26.99017
G1 X130.075 Y76.157 E27.24932
G1 X132.625 Y75.374 E27.5014
G1 X132.806 Y75.321 E27.51923
G1 X133.299 Y75.218 E27.56682
G1 X133.944 Y75.184 E27.62786
G1 X134.042 Y75.182 E27.63712
G1 X138.034 Y75.178 E28.01436
G1 X138.737 Y75.188 E28.0808
G1 X139.239 Y75.235 E28.12845
G1 X139.726 Y75.361 E28.17599
G1 X140.188 Y75.562 E28.2236
G1 X140.431 Y75.706 E28.25029
G1 X141.538 Y76.431 E28.37534
G1 X141.586 Y76.455 E28.38041
G1 X143.269 Y77.541 E28.56969
G1 X145.596 Y78.953 E28.82691
G1 X147.964 Y80.301 E29.08441
G1 X150.06 Y81.403 E29.30819
G1 X150.908 Y81.861 E29.39926
G1 X151.331 Y82.135 E29.44689
G1 X151.705 Y82.472 E29.49446
G1 X152.021 Y82.864 E29.54205
G1 X152.271 Y83.301 E29.58962
G1 X152.449 Y83.772 E29.6372
G1 X152.55 Y84.266 E29.68485
G1 X152.583 Y84.933 E29.74796
G1 X152.589 Y89.216 E30.15271
G1 X152.58 Y89.882 E30.21565
G1 X152.533 Y90.383 E30.2632
G1 X152.408 Y90.871 E30.31081
G1 X152.207 Y91.333 E30.35842
G1 X151.935 Y91.757 E30.40602
G1 X151.6 Y92.133 E30.45361
G1 X151.21 Y92.451 E30.50116
G1 X150.774 Y92.704 E30.5488
G1 X150.304 Y92.884 E30.59636
G1 X149.811 Y92.988 E30.64398
G1 X149.175 Y93.023 E30.70417
G1 X135.961 Y93.037 E31.95289
G1 X133.163 Y93.08 E32.21733
G1 X130.45 Y93.197 E32.47395
G1 X127.696 Y93.395 E32.73488
G1 X124.996 Y93.665 E32.9913
G1 X122.261 Y94.018 E33.2519
G1 X119.576 Y94.442 E33.50878
G1 X116.857 Y94.951 E33.77019
G1 X114.198 Y95.526 E34.02727
G1 X111.559 Y96.174 E34.28406
G1 X108.92 Y96.904 E34.54281
G1 X108.235 Y97.114 E34.61052
G1 X107.204 Y97.415 E34.71202
G1 X106.711 Y97.517 E34.75959
G1 X106.081 Y97.551 E34.81921
G1 X61.981 Y97.552 E38.98666
G1 X61.283 Y97.543 E39.05263
G1 X60.782 Y97.496 E39.10018
G1 X60.294 Y97.371 E39.14779
G1 X59.832 Y97.171 E39.19536
G1 X59.408 Y96.899 E39.24297
G1 X59.031 Y96.565 E39.29056
G1 X58.713 Y96.174 E39.33819
G1 X58.46 Y95.739 E39.38574
G1 X58.279 Y95.269 E39.43334
G1 X58.175 Y94.776 E39.48095
G1 X58.141 Y94.121 E39.54293
G1 X58.14 Y83.834 E40.51506
G1 X58.149 Y83.145 E40.58017
G1 X58.196 Y82.643 E40.62782
G1 X58.321 Y82.155 E40.67542
G1 X58.522 Y81.693 E40.72303
G1 X58.793 Y81.269 E40.77059
G1 X59.128 Y80.893 E40.81818
G1 X59.518 Y80.575 E40.86573
G10
;MESH:HingeCentre.3mf
G0 F4500 X75.977 Y88.956
G0 X74.261 Y89.08
G0 X75.416 Y90.943
G0 X76.118 Y91.666
G0 X76.832 Y92.079
G0 X77.985 Y92.482
G11
G0 X77.995 Y92.383
;TYPE:WALL-INNER
G1 F1800 X78.512 Y92.4 E40.91461
G1 X79.004 Y92.348 E40.96137
G1 X79.505 Y92.222 E41.01019
G1 X79.963 Y92.036 E41.0569
G1 X80.412 Y91.775 E41.10598
G1 X80.81 Y91.461 E41.15388
G1 X81.159 Y91.097 E41.20154
G1 X81.449 Y90.697 E41.24823
G1 X81.691 Y90.24 E41.2971
G1 X81.859 Y89.775 E41.34382
G1 X81.963 Y89.282 E41.39143
G1 X82.001 Y88.777 E41.43929
G1 X81.961 Y88.26 E41.48829
G1 X81.859 Y87.777 E41.53494
G1 X81.681 Y87.291 E41.58385
G1 X81.448 Y86.853 E41.63074
G1 X81.142 Y86.437 E41.67954
G1 X80.8 Y86.082 E41.72612
G1 X80.391 Y85.765 E41.77502
G1 X79.963 Y85.517 E41.82177
G1 X79.482 Y85.324 E41.87074
G1 X79.002 Y85.205 E41.91748
G1 X78.489 Y85.153 E41.9662
G1 X77.993 Y85.171 E42.01311
G1 X77.485 Y85.262 E42.06188
G1 X77.013 Y85.414 E42.10874
G1 X76.55 Y85.643 E42.15755
G1 X76.14 Y85.92 E42.20431
G1 X75.757 Y86.267 E42.25315
G1 X75.44 Y86.646 E42.29984
G1 X75.166 Y87.084 E42.34866
G1 X74.966 Y87.537 E42.39546
G1 X74.826 Y88.024 E42.44334
G1 X74.756 Y88.536 E42.49218
G1 X74.757 Y89.043 E42.54009
G1 X74.83 Y89.542 E42.58774
G1 X74.966 Y90.018 E42.63453
G1 X75.178 Y90.491 E42.68351
G1 X75.448 Y90.92 E42.73141
G1 X75.774 Y91.304 E42.77901
G1 X76.142 Y91.635 E42.82579
G1 X76.572 Y91.922 E42.87464
G1 X77.015 Y92.139 E42.92126
G1 X77.509 Y92.298 E42.9703
G1 X77.995 Y92.383 E43.01692
G10
G0 F4500 X77.985 Y92.482
G0 X80.692 Y92.186
G0 X79.723 Y90.764
G0 X87.537 Y90.456
G0 X86.299 Y91.651
G0 X88.868 Y92.482
G11
G0 X88.878 Y92.383
G1 F1800 X89.394 Y92.4 E43.06571
G1 X89.886 Y92.348 E43.11246
G1 X90.388 Y92.222 E43.16137
G1 X90.846 Y92.036 E43.20809
G1 X91.295 Y91.775 E43.25717
G1 X91.692 Y91.461 E43.305
G1 X92.042 Y91.098 E43.35265
G1 X92.332 Y90.697 E43.39942
G1 X92.573 Y90.24 E43.44824
G1 X92.742 Y89.776 E43.49491
G1 X92.848 Y89.281 E43.54274
G1 X92.883 Y88.776 E43.59058
G1 X92.844 Y88.26 E43.63948
G1 X92.742 Y87.776 E43.68623
G1 X92.563 Y87.291 E43.73508
G1 X92.331 Y86.854 E43.78184
G1 X92.025 Y86.437 E43.83071
G1 X91.682 Y86.082 E43.87736
G1 X91.274 Y85.765 E43.92619
G1 X90.846 Y85.517 E43.97293
G1 X90.364 Y85.324 E44.022
G1 X89.884 Y85.205 E44.06873
G1 X89.37 Y85.153 E44.11755
G1 X88.876 Y85.171 E44.16427
G1 X88.367 Y85.262 E44.21313
G1 X87.897 Y85.414 E44.25981
G1 X87.433 Y85.643 E44.30871
G1 X87.023 Y85.92 E44.35546
G1 X86.64 Y86.267 E44.4043
G1 X86.322 Y86.646 E44.45106
G1 X86.049 Y87.085 E44.49991
G1 X85.849 Y87.537 E44.54662
G1 X85.709 Y88.024 E44.5945
G1 X85.639 Y88.536 E44.64334
G1 X85.64 Y89.043 E44.69125
G1 X85.713 Y89.542 E44.73891
G1 X85.849 Y90.018 E44.78569
G1 X86.061 Y90.491 E44.83467
G1 X86.33 Y90.918 E44.88236
G1 X86.656 Y91.305 E44.93018
G1 X87.025 Y91.635 E44.97696
G1 X87.454 Y91.922 E45.02574
G1 X87.898 Y92.139 E45.07244
G1 X88.391 Y92.298 E45.12139
G1 X88.878 Y92.383 E45.16811
G10
G0 F4500 X88.868 Y92.482
G0 X91.575 Y92.186
G0 X91.575 Y93.337
G0 X105.72 Y93.782
G11
G0 X105.79 Y93.852
G1 F1800 X61.84 Y93.852 E49.32138
G1 X61.84 Y83.702 E50.28056
G1 X105.79 Y83.702 E54.43383
G1 X105.79 Y93.852 E55.39301
G0 F4500 X106.115 Y94.177
;TYPE:WALL-OUTER
G1 F1800 X61.515 Y94.177 E59.60771
G1 X61.515 Y83.377 E60.62831
G1 X106.115 Y83.377 E64.84301
G1 X106.115 Y94.177 E65.86361
G0 F4500 X105.915 Y94.177
G10
G0 X105.72 Y93.782
G0 X88.897 Y93.337
G0 X88.897 Y92.483
G11
G0 X88.911 Y92.059
G1 F1800 X89.382 Y92.074 E65.90814
G1 X89.829 Y92.027 E65.95061
G1 X90.287 Y91.912 E65.99524
G1 X90.703 Y91.743 E66.03767
G1 X91.112 Y91.506 E66.08234
G1 X91.473 Y91.22 E66.12586
G1 X91.792 Y90.889 E66.16931
G1 X92.055 Y90.525 E66.21174
G1 X92.275 Y90.108 E66.2563
G1 X92.429 Y89.686 E66.29875
G1 X92.525 Y89.236 E66.34223
G1 X92.557 Y88.777 E66.38571
G1 X92.522 Y88.306 E66.43034
G1 X92.429 Y87.866 E66.47284
G1 X92.266 Y87.424 E66.51736
G1 X92.055 Y87.027 E66.55985
G1 X91.776 Y86.647 E66.6044
G1 X91.464 Y86.324 E66.64683
G1 X91.092 Y86.035 E66.69135
G1 X90.703 Y85.81 E66.73382
G1 X90.264 Y85.634 E66.77851
G1 X89.828 Y85.526 E66.82096
G1 X89.36 Y85.479 E66.86541
G1 X88.911 Y85.495 E66.90787
G1 X88.446 Y85.578 E66.9525
G1 X88.02 Y85.716 E66.99482
G1 X87.596 Y85.925 E67.03949
G1 X87.224 Y86.176 E67.0819
G1 X86.875 Y86.493 E67.12645
G1 X86.586 Y86.837 E67.16891
G1 X86.337 Y87.237 E67.21344
G1 X86.155 Y87.648 E67.25591
G1 X86.028 Y88.091 E67.29946
G1 X85.964 Y88.558 E67.34401
G1 X85.965 Y89.019 E67.38757
G1 X86.031 Y89.474 E67.43102
G1 X86.155 Y89.906 E67.47349
G1 X86.348 Y90.337 E67.51812
G1 X86.593 Y90.726 E67.56156
G1 X86.89 Y91.078 E67.60508
G1 X87.225 Y91.378 E67.64758
G1 X87.616 Y91.64 E67.69206
G1 X88.02 Y91.837 E67.73453
G1 X88.469 Y91.982 E67.77912
G1 X88.911 Y92.059 E67.82152
G0 F4500 X89.111 Y92.065
G10
G0 X89.097 Y92.49
G0 X87.207 Y92.352
G0 X88.059 Y90.86
G0 X79.723 Y90.764
G0 X80.692 Y92.186
G0 X77.955 Y92.476
G11
G0 X78.028 Y92.059
G1 F1800 X78.5 Y92.074 E67.86615
G1 X78.947 Y92.027 E67.90862
G1 X79.404 Y91.912 E67.95315
G1 X79.82 Y91.743 E67.99559
G1 X80.229 Y91.506 E68.04026
G1 X80.591 Y91.22 E68.08385
G1 X80.909 Y90.888 E68.1273
G1 X81.172 Y90.525 E68.16966
G1 X81.393 Y90.108 E68.21426
G1 X81.546 Y89.686 E68.25668
G1 X81.641 Y89.236 E68.30014
G1 X81.675 Y88.777 E68.34363
G1 X81.639 Y88.306 E68.38827
G1 X81.546 Y87.867 E68.43068
G1 X81.384 Y87.424 E68.47525
G1 X81.172 Y87.027 E68.51778
G1 X80.893 Y86.647 E68.56233
G1 X80.582 Y86.324 E68.60471
G1 X80.209 Y86.035 E68.6493
G1 X79.82 Y85.81 E68.69176
G1 X79.382 Y85.634 E68.73637
G1 X78.946 Y85.526 E68.77882
G1 X78.478 Y85.479 E68.82327
G1 X78.028 Y85.495 E68.86582
G1 X77.564 Y85.578 E68.91036
G1 X77.136 Y85.716 E68.95286
G1 X76.714 Y85.925 E68.99736
G1 X76.341 Y86.176 E69.03985
G1 X75.992 Y86.493 E69.0844
G1 X75.704 Y86.837 E69.1268
G1 X75.454 Y87.237 E69.17137
G1 X75.272 Y87.648 E69.21385
G1 X75.145 Y88.091 E69.2574
G1 X75.081 Y88.558 E69.30194
G1 X75.082 Y89.019 E69.34551
G1 X75.148 Y89.474 E69.38896
G1 X75.272 Y89.906 E69.43143
G1 X75.465 Y90.337 E69.47606
G1 X75.711 Y90.727 E69.51963
G1 X76.008 Y91.077 E69.56301
G1 X76.342 Y91.378 E69.6055
G1 X76.734 Y91.64 E69.65005
G1 X77.137 Y91.837 E69.69244
G1 X77.587 Y91.982 E69.73712
G1 X78.028 Y92.059 E69.77943
G0 F4500 X78.228 Y92.065
G0 X77.96 Y92.723
;TYPE:SKIN
G1 F1800 X78.524 Y92.74 E69.83115
G1 X79.064 Y92.684 E69.88091
G1 X79.612 Y92.546 E69.93272
G1 X80.113 Y92.341 E69.98234
G1 X80.604 Y92.057 E70.03433
G1 X81.039 Y91.713 E70.08516
G1 X81.421 Y91.315 E70.13573
G1 X81.738 Y90.877 E70.18529
G1 X82.002 Y90.378 E70.23704
G1 X82.187 Y89.868 E70.28677
G1 X82.301 Y89.33 E70.33718
G1 X82.342 Y88.777 E70.38801
G1 X82.299 Y88.211 E70.44004
G1 X82.187 Y87.683 E70.48952
G1 X81.992 Y87.152 E70.54137
G1 X81.737 Y86.672 E70.5912
G1 X81.402 Y86.217 E70.64299
G1 X81.028 Y85.828 E70.69245
G1 X80.581 Y85.482 E70.74427
G1 X80.112 Y85.21 E70.79397
G1 X79.587 Y85 E70.8458
G1 X79.06 Y84.869 E70.89557
G1 X78.5 Y84.813 E70.94716
G1 X77.956 Y84.833 E70.99706
G1 X77.403 Y84.932 E71.04856
G1 X76.885 Y85.098 E71.09842
G1 X76.379 Y85.348 E71.15016
G1 X75.93 Y85.652 E71.19986
G1 X75.512 Y86.03 E71.25152
G1 X75.164 Y86.446 E71.30123
G1 X74.865 Y86.925 E71.35299
G1 X74.646 Y87.421 E71.40269
G1 X74.492 Y87.954 E71.45355
G1 X74.416 Y88.513 E71.50526
G1 X74.417 Y89.068 E71.55614
G1 X74.497 Y89.614 E71.60672
G1 X74.646 Y90.135 E71.65639
G1 X74.877 Y90.652 E71.7083
G1 X75.174 Y91.122 E71.75926
G1 X75.529 Y91.541 E71.8096
G1 X75.933 Y91.905 E71.85945
G1 X76.403 Y92.217 E71.91116
G1 X76.887 Y92.455 E71.9606
G1 X77.427 Y92.629 E72.0126
G1 X77.96 Y92.723 E72.06222
G10
G0 F4500 X79.98 Y92.071
G0 X81.871 Y90.96
G0 X80.413 Y90.047
G0 X86.972 Y89.509
G0 X85.304 Y89.983
G0 X85.529 Y90.135
G11
G1 F1800 X85.76 Y90.652 E72.11412
G1 X86.055 Y91.12 E72.16483
G1 X86.411 Y91.542 E72.21544
G1 X86.816 Y91.905 E72.26529
G1 X87.285 Y92.217 E72.31693
G1 X87.77 Y92.455 E72.36645
G1 X88.309 Y92.629 E72.41837
G1 X88.843 Y92.723 E72.46807
G1 X89.406 Y92.74 E72.5197
G1 X89.946 Y92.684 E72.56947
G1 X90.494 Y92.546 E72.62127
G1 X90.996 Y92.341 E72.67097
G1 X91.487 Y92.057 E72.72297
G1 X91.921 Y91.714 E72.77367
G1 X92.304 Y91.317 E72.82424
G1 X92.622 Y90.877 E72.874
G1 X92.884 Y90.378 E72.92566
G1 X93.07 Y89.87 E72.97525
G1 X93.186 Y89.328 E73.02606
G1 X93.223 Y88.774 E73.07696
G1 X93.182 Y88.212 E73.12861
G1 X93.07 Y87.681 E73.17835
G1 X92.874 Y87.151 E73.23015
G1 X92.62 Y86.673 E73.27977
G1 X92.285 Y86.217 E73.33164
G1 X91.909 Y85.828 E73.38123
G1 X91.464 Y85.483 E73.43284
G1 X90.995 Y85.21 E73.48259
G1 X90.469 Y85 E73.5345
G1 X89.942 Y84.869 E73.58428
G1 X89.381 Y84.813 E73.63596
G1 X88.839 Y84.833 E73.68568
G1 X88.284 Y84.932 E73.73735
G1 X87.769 Y85.098 E73.78695
G1 X87.262 Y85.348 E73.83877
G1 X86.813 Y85.652 E73.88847
G1 X86.395 Y86.03 E73.94013
G1 X86.046 Y86.446 E73.98991
G1 X85.748 Y86.926 E74.0417
G1 X85.529 Y87.421 E74.09131
G1 X85.375 Y87.954 E74.14217
G1 X85.299 Y88.513 E74.19388
G1 X85.3 Y89.068 E74.24476
G1 X85.38 Y89.614 E74.29534
G1 X85.529 Y90.135 E74.34501
G10
G0 F4500 X86.908 Y89.281
G0 X85.228 Y95.073
G0 X85.228 Y93.337
G0 X62.18 Y93.512
G11
G1 F1800 X62.18 Y84.042 E75.21308
G1 X105.45 Y84.042 E79.17942
G1 X105.45 Y93.512 E80.04749
G1 X62.18 Y93.512 E84.01384
G0 F4500 X62.327 Y84.189
G0 X104.988 Y84.117
G0 X104.988 Y84.199
G1 F1800 X105.292 Y84.503 E84.05324
G0 F4500 X105.292 Y84.998
G1 F1800 X104.493 Y84.199 E84.15682
G0 F4500 X103.998 Y84.199
G1 F1800 X105.292 Y85.493 E84.32457
G0 F4500 X105.292 Y85.988
G1 F1800 X103.503 Y84.199 E84.55648
G0 F4500 X103.008 Y84.199
G1 F1800 X105.292 Y86.483 E84.85257
G0 F4500 X105.292 Y86.978
G1 F1800 X102.513 Y84.199 E85.21282
G0 F4500 X102.018 Y84.199
G1 F1800 X105.292 Y87.473 E85.63724
G0 F4500 X105.292 Y87.968
G1 F1800 X101.523 Y84.199 E86.12583
G0 F4500 X101.028 Y84.199
G1 F1800 X105.292 Y88.463 E86.67859
G0 F4500 X105.292 Y88.958
G1 F1800 X100.533 Y84.199 E87.29552
G0 F4500 X100.038 Y84.199
G1 F1800 X105.292 Y89.453 E87.97661
G0 F4500 X105.292 Y89.948
G1 F1800 X99.543 Y84.199 E88.72188
G0 F4500 X99.048 Y84.199
G1 F1800 X105.292 Y90.443 E89.53131
G0 F4500 X105.292 Y90.938
G1 F1800 X98.553 Y84.199 E90.40492
G0 F4500 X98.058 Y84.199
G1 F1800 X105.292 Y91.433 E91.34269
G0 F4500 X105.292 Y91.928
G1 F1800 X97.563 Y84.199 E92.34463
G0 F4500 X97.068 Y84.199
G1 F1800 X105.292 Y92.423 E93.41074
G0 F4500 X105.292 Y92.918
G1 F1800 X96.573 Y84.199 E94.54101
G0 F4500 X96.078 Y84.199
G1 F1800 X105.233 Y93.354 E95.72781
